X:121 
T:Martin Mulhaire's (reel)
F:file ID: cre.5/121mart_m
B:CRE5.131 (Ril MhÃÂÃÂÃÂÃÂ¡irtÃÂÃÂÃÂÃÂ­n UÃÂÃÂÃÂÃÂ­ MhaolchÃÂÃÂÃÂÃÂ©ire)
M:4/4
Q:180
R:reel
K:G
(3DEF|G2BG DGBd|eg ~g2 edBd|eceg edBG|Ad ~d2 edcA|
G2BG DGBd|eg ~g2 edBd|eccB cBAG|FADF G2:|
|:Bd|g2bd gdBd|gbaf gdBd|ABde fdde|fdad bdad|
g2bd gdBd|gbaf gdBd|ABde fgfe|cAFA G2:|

%%%

